X:1
T:Title
%%score { ( 1 3 ) | ( 2 4 5 ) }
L:1/8
M:4/4
K:Ab
V:1 treble nm="Grand Piano"
V:3 treble 
V:2 bass 
V:4 bass 
V:5 bass 
V:1
 z4 z2[Q:1/4=106] A2 | F3 =E F2 E2 | F2 [FA]4 F2 | A2 A2 A2 G2 | _G6 G2 | [_GB]3 [GB] [Ac]2 [GB]2 | %6
 [E_G]2 [EG]4 [EG]2 | [_GB]3 [GB] [FA]2 [EG]2 | F6 A2 | F3 =E F2 E2 | F2 [FA]4 [FA]2 | %11
 [FA]2 [FA]2 [Fd]2 [Ac]2 | B6 B2 | G3 G G2 F2 | E2 F2 G [GB]3 | [Gd]2 [Gd]>[Gd] [Gc]2 [GB]2 | A8 | %17
 [Fd]2 c>B D3- [DFB] | [DF] [FA]3- [FA]4 | [Fd]2 c>B [DFA]3 [DFB] | [E_G]6 z2 | %21
 [CE]3 [DF] [E_G]2 [Gd]2 | [_Gc] [EG]3- [EG]2 [DF]2 | [CE] B3 A2 _G2 | F6 z2 | %25
 [Fd]2 c>B [DFA]2 [FB]2 | [DF] A3- A2 [DFA]2 | [Fd]3 [Fd] [Fe]2 [Fd]2 | B6 B2 | d3 c d2 B2 | %30
[M:19/16] AF/-F/-F-<F[FA][Fd]/-[Fd]/-[Fd]/-[Fd]/-[Fd]/-[Fd]-<[Fd] | %31
[M:4/4] [GB]2 [Gc]>[Gd] [_Ge]3 [GA][Q:1/4=104][Q:1/4=103][Q:1/4=101][Q:1/4=99][Q:1/4=98][Q:1/4=96][Q:1/4=94][Q:1/4=93][Q:1/4=91][Q:1/4=89][Q:1/4=88][Q:1/4=86][Q:1/4=84][Q:1/4=83][Q:1/4=81] | %32
[M:3/4] [Fd]6 |] %33
V:2
 z4 z2 [D,F,D]2 | [D,A,D]3 [D,G,D] [D,A,D]2 [D,G,D]2 | [D,A,D]2 [D,D]4 [D,A,D]2 | %3
 [F,A,D]2 [F,A,D]2 [F,A,D]2 [=E,B,D]2 | [E,A,C]6 [E,A,C]2 | [A,,A,]3 [A,,A,] [A,,A,]2 [A,,A,]2 | %6
 [A,,A,]2 [A,,A,]4 [A,,A,]2 | [A,,A,]3 [A,,A,] [B,,A,]2 [C,A,]2 | [D,A,D]6 [D,F,D]2 | %9
 [D,A,D]3 [D,G,D] [D,A,D]2 [D,G,D]2 | [D,A,D]2 [D,D]4 [D,D]2 | [D,D]2 [D,D]2 [D,A,]2 [F,D]2 | %12
 [_G,D_G]6 [G,B,D]2 | [E,B,D]3 [E,B,D] [E,B,D]2 [E,A,D]2 | [E,G,D]2 [E,A,D]2 [E,B,D] [E,E]3 | %15
 [E,B,]2 [E,B,]>[E,B,] [E,E]2 [E,D]2 | [A,C]8 | z2[K:treble] F>F[K:bass] D,3 D, | z D3- D4 | %19
 z2[K:treble] F>F[K:bass] D,3 F, | A,2 A,2 A,2 [A,,A,]2 | [A,,A,]3 [A,,A,] [A,,A,]2 [A,,A,]2 | %22
 [A,,A,] [A,,A,]3- [A,,A,]2 [A,,A,]2 | [A,,A,] [_G,A,C]3 [F,A,D]2 [E,A,C]2 | [D,A,D]6 z2 | %25
 z4[K:treble][K:bass] z2 D2 | z[K:treble] F3- F2[K:bass] z2 | [D,_C]3 [D,C] [D,C]2 [D,C]2 | %28
 [_G,D_G]6 [G,DG]2 | [G,B,=E]3 [G,CE] [G,B,E]2 [G,DE]2 | %30
[M:19/16] [A,DF][K:bass][A,D]/-[A,D]/-[A,D]-<[A,D][D,D][D,D]/-[D,D]/-[D,D]/-[D,D]/-[D,D]/-[D,D]-<[D,D] | %31
[M:4/4] [E,D]2 [E,C]>[E,B,] [A,C]3 [A,C] |[M:3/4] [D,A,D]6 |] %33
V:3
 x8 | x8 | x8 | x8 | x8 | x8 | x8 | x8 | x8 | x8 | x8 | x8 | x8 | x8 | x8 | x8 | z4 _G4 | %17
 z4 [FA]4 | x8 | x8 | C2 C2 C2 [DF]2 | x8 | x8 | x8 | x8 | x8 | x8 | x8 | x8 | x8 | %30
[M:19/16] x19/2 |[M:4/4] x8 |[M:3/4] x6 |] %33
V:4
 x8 | x8 | x8 | x8 | x8 | x8 | x8 | x8 | x8 | x8 | x8 | x8 | x8 | x8 | x8 | x8 | x8 | %17
 [D,D]4[K:treble][K:bass] z4 | z2 F,2 A,2 F,2 | [D,D]4[K:treble][K:bass] z4 | x8 | x8 | x8 | x8 | %24
 x8 | z2[K:treble] F>F[K:bass] z2 z D, | z2[K:treble] F,2 A,2[K:bass] D,2 | x8 | x8 | x8 | %30
[M:19/16] x[K:bass] x17/2 |[M:4/4] x8 |[M:3/4] x6 |] %33
V:5
 x8 | x8 | x8 | x8 | x8 | x8 | x8 | x8 | x8 | x8 | x8 | x8 | x8 | x8 | x8 | x8 | x8 | %17
 x2[K:treble] x2[K:bass] x4 | D,2 z2 z4 | x2[K:treble] x2[K:bass] x4 | x8 | x8 | x8 | x8 | x8 | %25
 [D,D]4[K:treble][K:bass] D,4 | D,2[K:treble] z2 z4[K:bass] | x8 | x8 | x8 | %30
[M:19/16] x[K:bass] x17/2 |[M:4/4] x8 |[M:3/4] x6 |] %33

